img/basket.svg

<svg width="24" height="24" viewBox="0 0 24 24" fill="none" xmlns="http://www.w3.org/2000/svg">
<g clip-path="url(#clip0_11_228)">
<path fill-rule="evenodd" clip-rule="evenodd" d="M7 21C7 19.8954 7.89543 19 9 19C10.1046 19 11 19.8954 11 21C11 22.1046 10.1046 23 9 23C7.89543 23 7 22.1046 7 21Z" fill="black"/>
<path fill-rule="evenodd" clip-rule="evenodd" d="M18 21C18 19.8954 18.8954 19 20 19C21.1046 19 22 19.8954 22 21C22 22.1046 21.1046 23 20 23C18.8954 23 18 22.1046 18 21Z" fill="black"/>
<path fill-rule="evenodd" clip-rule="evenodd" d="M0 1C0 0.447715 0.447715 0 1 0H5C5.47663 0 5.88701 0.336385 5.98055 0.803743L6.82043 5H23C23.298 5 23.5805 5.13293 23.7705 5.36256C23.9605 5.59218 24.0381 5.89458 23.9823 6.18733L22.3809 14.5848C22.2437 15.2754 21.868 15.8958 21.3195 16.3373C20.7738 16.7766 20.0916 17.011 19.3914 17H9.68864C8.98837 17.011 8.3062 16.7766 7.76048 16.3373C7.21225 15.8959 6.83664 15.2759 6.69933 14.5857C6.69927 14.5854 6.69939 14.5859 6.69933 14.5857L5.02879 6.2392C5.02201 6.21159 5.01638 6.18353 5.01195 6.15508L4.18032 2H1C0.447715 2 0 1.55228 0 1ZM7.22073 7L8.66084 14.1952C8.70656 14.4254 8.83179 14.6322 9.01461 14.7793C9.19743 14.9265 9.42619 15.0047 9.66084 15.0002L9.68 15H19.4L19.4192 15.0002C19.6538 15.0047 19.8826 14.9265 20.0654 14.7793C20.2474 14.6328 20.3723 14.4273 20.4185 14.1984L21.7913 7H7.22073Z" fill="black"/>
</g>
<defs>
<clipPath id="clip0_11_228">
<rect width="24" height="24" fill="white"/>
</clipPath>
</defs>
</svg>

<svg width="24" height="24" fill="none" xmlns="http://www.w3.org/2000/svg"><g clip-path="url(#a)" fill-rule="evenodd" clip-rule="evenodd" fill="#000"><path d="M7 21a2 2 0 1 1 4 0 2 2 0 0 1-4 0zM18 21a2 2 0 1 1 4 0 2 2 0 0 1-4 0zM0 1a1 1 0 0 1 1-1h4a1 1 0 0 1 .98.804L6.82 5H23a1 1 0 0 1 .982 1.187l-1.601 8.398A3 3 0 0 1 19.39 17H9.69a3 3 0 0 1-2.99-2.414L5.03 6.239a.994.994 0 0 1-.017-.084L4.18 2H1a1 1 0 0 1-1-1zm7.22 6 1.44 7.195a1 1 0 0 0 1 .805h9.76a1 1 0 0 0 .998-.802L21.792 7H7.221z"/></g><defs><clipPath id="a"><path fill="#fff" d="M0 0h24v24H0z"/></clipPath></defs></svg>
